optimized/24/outline/regexp.svg

<svg viewBox="0 0 24 24" xmlns="http://www.w3.org/2000/svg" fill="currentColor" data-slot="icon">
  <g clip-path="url(#clip0_4643_40)">
    <path d="M3.00569 2.75001L3 2.74998C2.58579 2.74998 2.25 3.08577 2.25 3.49998V20.5C2.25 20.9142 2.58579 21.25 3 21.25H7C7.41421 21.25 7.75 20.9142 7.75 20.5C7.75 20.0858 7.41421 19.75 7 19.75H3.75V4.25001H7C7.41421 4.25001 7.75 3.91422 7.75 3.50001C7.75 3.08579 7.41421 2.75001 7 2.75001H3.00569Z"/>
    <path d="M21.75 3.50001C21.75 3.08579 21.4142 2.75001 21 2.75001H17C16.5858 2.75001 16.25 3.08579 16.25 3.50001C16.25 3.91422 16.5858 4.25001 17 4.25001H20.25V19.75H17C16.5858 19.75 16.25 20.0858 16.25 20.5C16.25 20.9142 16.5858 21.25 17 21.25H21C21.4126 21.25 21.7474 20.9168 21.75 20.5049L21.75 20.5V3.58812C21.75 3.57333 21.7496 3.55864 21.7487 3.54406C21.7496 3.52948 21.75 3.51479 21.75 3.50001Z"/>
    <path d="M5.83955 12.6444L9.33653 6.15022C9.36483 6.09641 9.3998 6.04578 9.44101 5.99972C9.51352 5.91857 9.60164 5.85574 9.69819 5.81338C9.80169 5.76773 9.91085 5.74737 10.0182 5.75007C10.1056 5.75212 10.1936 5.76952 10.2783 5.80347C10.3999 5.85198 10.5094 5.93239 10.593 6.04054C10.6191 6.07426 10.6421 6.10997 10.662 6.14724L14.1603 12.6444C14.3567 13.0091 14.2202 13.464 13.8555 13.6603C13.4908 13.8567 13.0359 13.7203 12.8396 13.3555L10 8.08188L7.16025 13.3556C6.96387 13.7203 6.50902 13.8567 6.14432 13.6603C5.77962 13.464 5.64317 13.0091 5.83955 12.6444Z"/>
    <path d="M10 17.5C10.5523 17.5 11 17.0523 11 16.5C11 15.9477 10.5523 15.5 10 15.5C9.44772 15.5 9 15.9477 9 16.5C9 17.0523 9.44772 17.5 10 17.5Z"/>
    <path d="M14.5 16.5C14.5 17.0523 14.0523 17.5 13.5 17.5C12.9477 17.5 12.5 17.0523 12.5 16.5C12.5 15.9477 12.9477 15.5 13.5 15.5C14.0523 15.5 14.5 15.9477 14.5 16.5Z"/>
    <path d="M17 17.5C17.5523 17.5 18 17.0523 18 16.5C18 15.9477 17.5523 15.5 17 15.5C16.4477 15.5 16 15.9477 16 16.5C16 17.0523 16.4477 17.5 17 17.5Z"/>
  </g>
  <defs>
    <clipPath id="clip0_4643_40">
      <rect width="24" height="24"/>
    </clipPath>
  </defs>
</svg>

<svg xmlns="http://www.w3.org/2000/svg" viewBox="0 0 24 24" fill="currentColor" data-slot="icon">
  <g clip-path="url(#a)">
    <path d="M3.006 2.75H3a.75.75 0 0 0-.75.75v17c0 .414.336.75.75.75h4a.75.75 0 0 0 0-1.5H3.75V4.25H7a.75.75 0 0 0 0-1.5H3.006Z"/>
    <path d="M21.75 3.5a.75.75 0 0 0-.75-.75h-4a.75.75 0 0 0 0 1.5h3.25v15.5H17a.75.75 0 0 0 0 1.5h4a.75.75 0 0 0 .75-.745V3.588l-.001-.044.001-.044Z"/>
    <path d="M5.84 12.644 9.337 6.15a.748.748 0 0 1 .941-.347.747.747 0 0 1 .384.344l3.498 6.497a.75.75 0 1 1-1.32.711L10 8.082l-2.84 5.274a.75.75 0 0 1-1.32-.712Z"/>
    <path d="M10 17.5a1 1 0 1 0 0-2 1 1 0 0 0 0 2Z"/>
    <path d="M14.5 16.5a1 1 0 1 1-2 0 1 1 0 0 1 2 0Z"/>
    <path d="M17 17.5a1 1 0 1 0 0-2 1 1 0 0 0 0 2Z"/>
  </g>
  <defs>
    <clipPath id="a">
      <rect width="24" height="24"/>
    </clipPath>
  </defs>
</svg>
